!!!SOCIAL_FUNCTION:	initiation songs of the first and second degrees
!!!PDT:	1909
!!!OTL: No_7_Processional.krn
!!!REG: Great_Lakes
!!!LANG: Non-Tone
!!!LING_GROUP: Algonquin
**kern
*staff1
=1-
*clefF4
*k[b-e-]
*M5/4
8d^\L
8d\J
4d\
8d^\L
8d\J
4d\
4c\
=2||
*M4/4
8B-\L
8G\J
4G\
4G\
4r
=3||
*M5/4
8B-\L
8B-\J
4B-\
8B-\L
8B-\J
4c\
4c\
=4||
*M4/4
8B-\L
8G\J
4G\
(4G\
4F\)
=5||
*M5/4
8G\L
8G\J
4G\
8G\L
8G\J
4F\
4F\
=6||
*M4/4
8D\L
8D\J
4D\
2D\
=7
4G^\
4G\
4G^\
4G\
=8
8G^\L
8G\J
4G\
(4G\
4F\)
=9||
*M5/4
8G\L
8G\J
4G\
8G\L
8G\J
4G\
4G\
=10||
*M4/4
8G\L
8G\J
4G\
2G\
=11||
*M5/4
8B-\L
8B-\J
4B-\
8B-\L
8B-\J
4c\
4c\
=12||
*M4/4
8B-\L
8G\J
4G\
(4G\
4F\)
=13||
*M5/4
8G\L
8G\J
4G\
8G\L
8G\J
4G\
4F\
=14||
*M4/4
8D\L
8D\J
4D\
2D\
==
*-
